X: 10563
Q: "Moderate."
M: C
L: 1/8
K: F
c2 !f!|\
c3c d2e2 | f3f e2ze |\
f3c A2c2 | G4 z2c2 |\
=B3B c2d2 | e3d c2zc |\
d2c2 =B2d2 | c4 z2 |]\
!p!c2 |\
(B2c2) (A2c2) | (B3A G2)zc |\
(B2c2) (A2c2) |
!f!f3f e>fg>e | f4 z2c>B |\
[1 fcba agfe | f4 z2 |]\
[2 f3d (cBA).G | F4 z2 |]



